images/Logo_Full_blue.svg

<svg fill="none" height="86" viewBox="0 0 318 86" width="318" xmlns="http://www.w3.org/2000/svg"><g fill="#010118"><path d="m12.6075 13.9387h-6.26987l-1.00647 2.9291h-4.674479l6.419029-16.86676002h4.79379l6.419 16.86676002h-4.6745zm-1.163-3.3316-1.998-5.61981-1.94584 5.61981z"/><path d="m45.4555.00103998v13.15506002h5.2188v3.7266h-9.6025v-16.88166002z"/><path d="m83.4256 3.72768h-5.2187v2.80244h4.9205v3.72668h-4.9205v2.9067h5.2187v3.7267h-9.6025v-16.88916002h9.6025z"/><path d="m112.263 7.87171-5.256-7.87067002h5.412l2.289 4.36017002 2.84-4.36017002h5.413l-5.569 7.87067002 6.285 8.99609h-5.383l-3.377-5.5005-3.966 5.5005h-5.301z"/><path d="m156.614 13.9387h-6.262l-1.007 2.9291h-4.682l6.434-16.86676002h4.787l6.396 16.86676002h-4.682zm-1.163-3.3316-1.968-5.61981-1.968 5.61981z"/><path d="m185.079 16.8678v-16.86676002h4.383l8.104 10.31536002v-10.31536002h4.362v16.86676002h-4.362l-8.104-10.31532v10.31532z"/><path d="m226.314.00109923h6.494c1.113-.00712928 2.215.22945477 3.228.69315577.988.448685 1.885 1.075245 2.646 1.848415.756.77189 1.358 1.6798 1.775 2.67573.423 1.01291.641 2.09973.641 3.19746s-.218 2.18454-.641 3.19744c-.413 1.0033-1.012 1.919-1.767 2.6981-.745.7758-1.627 1.4075-2.602 1.8633-1.02.4653-2.129.7019-3.25.6932h-6.494zm4.391 13.15500077h1.007c.695.0118 1.386-.1096 2.035-.3577.56-.2208 1.068-.5559 1.491-.9838.415-.4254.735-.9334.939-1.4907.223-.60605.334-1.24746.329-1.89313.004-.64137-.11-1.2781-.336-1.87823-.21-.56468-.538-1.0781-.963-1.50606-.424-.42796-.934-.76065-1.497-.97589-.642-.24672-1.325-.36816-2.013-.35775h-1.007z"/><path d="m278.784 16.8679h-5.42l-4.182-6.4844v6.4844h-4.384v-16.86682706h6.822c.838-.01482624 1.672.12411406 2.46.40993106.654.248927 1.246.635276 1.737 1.132896.454.47478.804 1.03811 1.029 1.65463.233.64504.349 1.32653.343 2.01239.054 1.1155-.272 2.21629-.924 3.12293-.697.84537-1.668 1.42023-2.744 1.62481zm-9.639-9.33156h.827c.705.04972 1.406-.13932 1.991-.53663.231-.18263.414-.41817.535-.68671.121-.26855.175-.5622.158-.85612.017-.29392-.037-.58757-.158-.85612-.121-.26854-.304-.50409-.535-.68671-.586-.39364-1.286-.58232-1.991-.53664h-.827z"/><path d="m311.812 13.9387h-6.263l-1.006 2.9291h-4.675l6.419-16.86676002h4.786l6.427 16.86676002h-4.682zm-1.171-3.3316-1.968-5.61981-1.968 5.61981z"/><path d="m3.37051 34.2862 4.66702 11.7016 4.73417-11.7016h2.7882l-7.60437 18.1413-7.365853-18.1413z"/><path d="m51.3825 47.0685h-7.2242l-1.9085 4.0919h-2.7138l8.35-17.8879 8.0517 17.8879h-2.7883zm-1.0363-2.3925-2.5049-5.739-2.6094 5.739z"/><path d="m83.2541 51.1603v-18.0146l12.3087 12.8719v-11.7315h2.5422v17.8879l-12.2863-12.8197v11.806z"/><path d="m141.167 51.1604h-5.465l-4.182-6.4844v6.4844h-4.384v-16.8743h6.814c.839-.0159 1.674.1257 2.46.4174.637.2331 1.214.6038 1.691 1.0857.477.4818.842 1.0629 1.068 1.7019.236.6446.354 1.326.35 2.0123.052 1.1164-.277 2.2173-.932 3.123-.696.8453-1.667 1.4202-2.743 1.6248zm-9.647-9.3241h.827c.705.0457 1.405-.143 1.991-.5366.218-.1944.392-.4327.512-.6992.119-.2665.181-.5553.181-.8474 0-.292-.062-.5808-.181-.8474-.12-.2665-.294-.5048-.512-.6991-.586-.3937-1.286-.5824-1.991-.5367h-.827z"/><path d="m175.178 34.2862v16.8742h-4.384v-16.8742zm11.183 0v12.7377c.001.4559-.027.9114-.082 1.3639-.039.367-.124.7277-.254 1.0733-.289.6759-.724 1.2792-1.275 1.7664-1.05.9444-2.419 1.4558-3.832 1.431-.897.0124-1.782-.2102-2.567-.6456-.784-.4354-1.441-1.0685-1.906-1.8363l2.863-2.9292c.047.4408.218.8593.492 1.2075.112.141.255.2546.418.3321s.341.1169.522.1151c.82 0 1.23-.6485 1.23-1.9453v-12.6706z"/><path d="m229.87 39.9283c-.442-.5784-1.012-1.0468-1.665-1.3687s-1.372-.4886-2.1-.4872c-.624-.006-1.243.1157-1.819.3578-.541.2274-1.033.5591-1.446.9764-.413.428-.735.935-.947 1.4906-.236.5824-.355 1.2054-.35 1.8335-.006.6356.113 1.2661.35 1.8559.218.548.542 1.0474.954 1.4695s.904.7586 1.447.9901c.565.2409 1.174.3627 1.789.3577.722-.013 1.433-.1793 2.086-.4877.653-.3083 1.233-.7518 1.701-1.301v5.2173l-.447.1565c-.615.2224-1.246.3992-1.886.5292-.568.1092-1.145.1641-1.723.1639-2.299-.0226-4.498-.9427-6.128-2.5639-.824-.8182-1.486-1.784-1.953-2.8472-.482-1.1312-.73-2.348-.73-3.5775s.248-2.4464.73-3.5776c.704-1.5743 1.849-2.9115 3.296-3.8503 1.447-.9389 3.135-1.4395 4.86-1.4415.667.0006 1.332.0731 1.983.2161.703.1534 1.389.373 2.05.6559z"/><path d="m265.536 41.2476 5.346-6.9614h5.42l-6.71 7.9899 7.321 8.8769h-5.688l-5.704-7.3117v7.3117h-4.383v-16.8668h4.383z"/><path d="m316.262 38.0128h-5.218v2.8248h4.92v3.7267h-4.92v2.9067h5.218v3.7267h-9.595v-16.9115h9.595z"/><path d="m5.26395 68.5714 4.07805 10.2706 4.093-10.2706h4.7639l-7.1124 16.8816h-3.48904l-7.09746-16.8816z"/><path d="m143.739 85.4529h-5.465l-4.182-6.4843v6.4843h-4.384v-16.8816h6.822c.839-.0159 1.673.1257 2.46.4174.637.2314 1.215.6005 1.693 1.0811.479.4805.845 1.0606 1.073 1.6989.235.6472.354 1.3312.35 2.0199.051 1.1139-.278 2.2121-.932 3.1154-.696.8454-1.667 1.4203-2.743 1.6248zm-9.647-9.324h.827c.705.0457 1.405-.143 1.991-.5366.218-.1944.392-.4327.512-.6992.119-.2666.181-.5553.181-.8474s-.062-.5809-.181-.8474c-.12-.2665-.294-.5048-.512-.6992-.588-.3905-1.287-.5789-1.991-.5366h-.827z"/><path d="m199.743 72.9017c-.431-.3556-.914-.6445-1.431-.8571-.44-.1802-.911-.2763-1.387-.2832-.494-.0228-.981.1187-1.386.4024-.168.1185-.305.2761-.399.4592-.093.1831-.141.3862-.138.5917-.01.2737.086.5406.268.7454.203.2089.443.3783.709.4993.316.1527.645.2774.984.3727.365.1044.745.2162 1.081.3354 1.204.3338 2.293.9941 3.146 1.9081.695.8884 1.049 1.9961.999 3.1229.01.804-.139 1.602-.44 2.3478-.283.6902-.719 1.307-1.275 1.8037-.6.5227-1.3.9183-2.058 1.1627-.893.2866-1.827.4251-2.766.4099-2.125.0019-4.198-.6628-5.926-1.9006l1.878-3.5328c.578.5298 1.235.9672 1.946 1.2968.597.2735 1.245.4183 1.901.4249.578.0454 1.151-.1305 1.603-.4919.162-.1384.292-.3097.382-.5025.09-.1929.138-.4027.14-.6155.005-.2283-.041-.4548-.134-.6634-.108-.2036-.261-.3797-.448-.5143-.251-.1786-.524-.324-.812-.4323-.336-.1341-.746-.2832-1.223-.4472-.477-.1639-1.126-.3801-1.67-.5962-.528-.205-1.019-.4945-1.454-.8571-.436-.3735-.786-.8361-1.028-1.3565-.282-.6533-.415-1.3612-.388-2.0721-.008-.7647.131-1.5238.41-2.2359.261-.6564.657-1.2506 1.163-1.7441.526-.5011 1.15-.887 1.834-1.1329.78-.2777 1.603-.414 2.43-.4025.884.0076 1.763.1253 2.617.3503.91.2301 1.789.5706 2.617 1.0137z"/><path d="m259.453 72.298h-5.219v2.8174h4.921v3.7266h-4.921v2.9068h5.219v3.7266h-9.602v-16.904h9.602z"/><path d="m311.901 68.5714v13.155h5.256v3.7266h-9.64v-16.8816z"/><path d="m71.9442 85.6543c.8837-.1844 1.7125-.5711 2.4214-1.1298s1.2785-1.2741 1.6641-2.0901c.6848-1.4794.8554-3.1453.4846-4.7328-.341-1.5064-1.1915-2.849-2.408-3.8012-.6237-.4966-1.3417-.8617-2.1106-1.0731-.7688-.2114-1.5726-.2647-2.3626-.1567-1.6386.226-3.121 1.0916-4.1228 2.4075-.5105.673-.8832 1.4401-1.0969 2.2573-.2136.8173-.264 1.6686-.1482 2.5053.2188 1.7647 1.0978 3.3811 2.4603 4.5242.719.5897 1.5607 1.0114 2.4636 1.2345.9028.2231 1.8441.2418 2.7551.0549zm.0448.2534c-1.9177.2871-3.8755-.1002-5.5393-1.0956-.8678-.5137-1.6206-1.2003-2.2118-2.017-.5913-.8167-1.0083-1.7462-1.2251-2.7308-.4243-2.0601-.0141-4.2044 1.1406-5.9626.5874-.8912 1.3447-1.658 2.2287-2.2565.8839-.5985 1.8772-1.017 2.9229-1.2317 2.1689-.4491 4.4274-.0318 6.2923 1.1628.9391.6094 1.7365 1.4131 2.3384 2.3568s.9943 2.0056 1.1507 3.1139c.1444 1.0731.048 2.165-.2821 3.1963s-.8857 1.9763-1.6264 2.7663c-1.3848 1.4577-3.226 2.3991-5.2188 2.6683"/></g></svg>

<svg width="318" height="86" viewBox="0 0 318 86" fill="none" xmlns="http://www.w3.org/2000/svg">
<path d="M12.6075 13.9387H6.33763L5.33116 16.8678H0.656681L7.07571 0.00103998H11.8695L18.2885 16.8678H13.614L12.6075 13.9387ZM11.4445 10.6071L9.4465 4.98729L7.50066 10.6071H11.4445Z" fill="#010118"/>
<path d="M45.4555 0.00103998V13.1561H50.6743V16.8827H41.0718V0.00103998H45.4555Z" fill="#010118"/>
<path d="M83.4256 3.72768H78.2069V6.53012H83.1274V10.2568H78.2069V13.1635H83.4256V16.8902H73.8231V0.00103998H83.4256V3.72768Z" fill="#010118"/>
<path d="M112.263 7.87171L107.007 0.00103998H112.419L114.708 4.36121L117.548 0.00103998H122.961L117.392 7.87171L123.677 16.8678H118.294L114.917 11.3673L110.951 16.8678H105.65L112.263 7.87171Z" fill="#010118"/>
<path d="M156.614 13.9387H150.352L149.345 16.8678H144.663L151.097 0.00103998H155.884L162.28 16.8678H157.598L156.614 13.9387ZM155.451 10.6071L153.483 4.98729L151.515 10.6071H155.451Z" fill="#010118"/>
<path d="M185.079 16.8678V0.00103998H189.462L197.566 10.3164V0.00103998H201.928V16.8678H197.566L189.462 6.55248V16.8678H185.079Z" fill="#010118"/>
<path d="M226.314 0.00109923H232.808C233.921 -0.00603005 235.023 0.230554 236.036 0.694255C237.024 1.14294 237.921 1.7695 238.682 2.54267C239.438 3.31456 240.04 4.22247 240.457 5.2184C240.88 6.23131 241.098 7.31813 241.098 8.41586C241.098 9.51359 240.88 10.6004 240.457 11.6133C240.044 12.6166 239.445 13.5323 238.69 14.3114C237.945 15.0872 237.063 15.7189 236.088 16.1747C235.068 16.64 233.959 16.8766 232.838 16.8679H226.344L226.314 0.00109923ZM230.705 13.1561H231.712C232.407 13.1679 233.098 13.0465 233.747 12.7984C234.307 12.5776 234.815 12.2425 235.238 11.8146C235.653 11.3892 235.973 10.8812 236.177 10.3239C236.4 9.71785 236.511 9.07644 236.506 8.43077C236.51 7.7894 236.396 7.15267 236.17 6.55254C235.96 5.98786 235.632 5.47444 235.207 5.04648C234.783 4.61852 234.273 4.28583 233.71 4.07059C233.068 3.82387 232.385 3.70243 231.697 3.71284H230.69L230.705 13.1561Z" fill="#010118"/>
<path d="M278.784 16.8679H273.364L269.182 10.3835V16.8679H264.798V0.00107294H271.62C272.458 -0.0137533 273.292 0.125187 274.08 0.411004C274.734 0.659931 275.326 1.04628 275.817 1.5439C276.271 2.01868 276.621 2.58201 276.846 3.19853C277.079 3.84357 277.195 4.52506 277.189 5.21092C277.243 6.32642 276.917 7.42721 276.265 8.33385C275.568 9.17922 274.597 9.75408 273.521 9.95866L278.784 16.8679ZM269.145 7.53634H269.972C270.677 7.58606 271.378 7.39702 271.963 6.99971C272.194 6.81708 272.377 6.58154 272.498 6.313C272.619 6.04445 272.673 5.7508 272.656 5.45688C272.673 5.16296 272.619 4.86931 272.498 4.60076C272.377 4.33222 272.194 4.09667 271.963 3.91405C271.377 3.52041 270.677 3.33173 269.972 3.37741H269.145V7.53634Z" fill="#010118"/>
<path d="M311.812 13.9387H305.549L304.543 16.8678H299.868L306.287 0.00103998H311.073L317.5 16.8678H312.818L311.812 13.9387ZM310.641 10.6071L308.673 4.98729L306.705 10.6071H310.641Z" fill="#010118"/>
<path d="M3.37051 34.2862L8.03753 45.9878L12.7717 34.2862H15.5599L7.95553 52.4275L0.589677 34.2862H3.37051Z" fill="#010118"/>
<path d="M51.3825 47.0685H44.1583L42.2498 51.1604H39.536L47.886 33.2725L55.9377 51.1604H53.1494L51.3825 47.0685ZM50.3462 44.676L47.8413 38.937L45.2319 44.676H50.3462Z" fill="#010118"/>
<path d="M83.2541 51.1603V33.1457L95.5628 46.0176V34.2861H98.105V52.174L85.8187 39.3543V51.1603H83.2541Z" fill="#010118"/>
<path d="M141.167 51.1604H135.702L131.52 44.676V51.1604H127.136V34.2861H133.95C134.789 34.2702 135.624 34.4118 136.41 34.7035C137.047 34.9366 137.624 35.3073 138.101 35.7892C138.578 36.271 138.943 36.8521 139.169 37.4911C139.405 38.1357 139.523 38.8171 139.519 39.5034C139.571 40.6198 139.242 41.7207 138.587 42.6264C137.891 43.4717 136.92 44.0466 135.844 44.2512L141.167 51.1604ZM131.52 41.8363H132.347C133.052 41.882 133.752 41.6933 134.338 41.2997C134.556 41.1053 134.73 40.867 134.85 40.6005C134.969 40.334 135.031 40.0452 135.031 39.7531C135.031 39.4611 134.969 39.1723 134.85 38.9057C134.73 38.6392 134.556 38.4009 134.338 38.2066C133.752 37.8129 133.052 37.6242 132.347 37.6699H131.52V41.8363Z" fill="#010118"/>
<path d="M175.178 34.2862V51.1604H170.794V34.2862H175.178ZM186.361 34.2862V47.0239C186.362 47.4798 186.334 47.9353 186.279 48.3878C186.24 48.7548 186.155 49.1155 186.025 49.4611C185.736 50.137 185.301 50.7403 184.75 51.2275C183.7 52.1719 182.331 52.6833 180.918 52.6585C180.021 52.6709 179.136 52.4483 178.351 52.0129C177.567 51.5775 176.91 50.9444 176.445 50.1766L179.308 47.2474C179.355 47.6882 179.526 48.1067 179.8 48.4549C179.912 48.5959 180.055 48.7095 180.218 48.787C180.381 48.8645 180.559 48.9039 180.74 48.9021C181.56 48.9021 181.97 48.2536 181.97 46.9568V34.2862H186.361Z" fill="#010118"/>
<path d="M229.87 39.9283C229.428 39.3499 228.858 38.8815 228.205 38.5596C227.552 38.2377 226.833 38.071 226.105 38.0724C225.481 38.0664 224.862 38.1881 224.286 38.4302C223.745 38.6576 223.253 38.9893 222.84 39.4066C222.427 39.8346 222.105 40.3416 221.893 40.8972C221.657 41.4796 221.538 42.1026 221.543 42.7307C221.537 43.3663 221.656 43.9968 221.893 44.5866C222.111 45.1346 222.435 45.634 222.847 46.0561C223.259 46.4782 223.751 46.8147 224.294 47.0462C224.859 47.2871 225.468 47.4089 226.083 47.4039C226.805 47.3909 227.516 47.2246 228.169 46.9162C228.822 46.6079 229.402 46.1644 229.87 45.6152V50.8325L229.423 50.989C228.808 51.2114 228.177 51.3882 227.537 51.5182C226.969 51.6274 226.392 51.6823 225.814 51.6821C223.515 51.6595 221.316 50.7394 219.686 49.1182C218.862 48.3 218.2 47.3342 217.733 46.271C217.251 45.1398 217.003 43.923 217.003 42.6935C217.003 41.464 217.251 40.2471 217.733 39.1159C218.437 37.5416 219.582 36.2044 221.029 35.2656C222.476 34.3267 224.164 33.8261 225.889 33.8241C226.556 33.8247 227.221 33.8972 227.872 34.0402C228.575 34.1936 229.261 34.4132 229.922 34.6961L229.87 39.9283Z" fill="#010118"/>
<path d="M265.536 41.2476L270.882 34.2862H276.302L269.592 42.2761L276.913 51.153H271.225L265.521 43.8413V51.153H261.138V34.2862H265.521L265.536 41.2476Z" fill="#010118"/>
<path d="M316.262 38.0128H311.044V40.8376H315.964V44.5643H311.044V47.471H316.262V51.1977H306.667V34.2862H316.262V38.0128Z" fill="#010118"/>
<path d="M5.26395 68.5714L9.342 78.842L13.435 68.5714H18.1989L11.0865 85.453H7.59746L0.5 68.5714H5.26395Z" fill="#010118"/>
<path d="M143.739 85.4529H138.274L134.092 78.9686V85.4529H129.708V68.5713H136.53C137.369 68.5554 138.203 68.697 138.99 68.9887C139.627 69.2201 140.205 69.5892 140.683 70.0698C141.162 70.5503 141.528 71.1304 141.756 71.7687C141.991 72.4159 142.11 73.0999 142.106 73.7886C142.157 74.9025 141.828 76.0007 141.174 76.904C140.478 77.7494 139.507 78.3243 138.431 78.5288L143.739 85.4529ZM134.092 76.1289H134.919C135.624 76.1746 136.324 75.9859 136.91 75.5923C137.128 75.3979 137.302 75.1596 137.422 74.8931C137.541 74.6265 137.603 74.3378 137.603 74.0457C137.603 73.7536 137.541 73.4648 137.422 73.1983C137.302 72.9318 137.128 72.6935 136.91 72.4991C136.322 72.1086 135.623 71.9202 134.919 71.9625H134.092V76.1289Z" fill="#010118"/>
<path d="M199.743 72.9017C199.312 72.5461 198.829 72.2572 198.312 72.0446C197.872 71.8644 197.401 71.7683 196.925 71.7614C196.431 71.7386 195.944 71.8801 195.539 72.1638C195.371 72.2823 195.234 72.4399 195.14 72.623C195.047 72.8061 194.999 73.0092 195.002 73.2147C194.992 73.4884 195.088 73.7553 195.27 73.9601C195.473 74.169 195.713 74.3384 195.979 74.4594C196.295 74.6121 196.624 74.7368 196.963 74.8321C197.328 74.9365 197.708 75.0483 198.044 75.1675C199.248 75.5013 200.337 76.1616 201.19 77.0756C201.885 77.964 202.239 79.0717 202.189 80.1985C202.199 81.0025 202.05 81.8005 201.749 82.5463C201.466 83.2365 201.03 83.8533 200.474 84.35C199.874 84.8727 199.174 85.2683 198.416 85.5127C197.523 85.7993 196.589 85.9378 195.65 85.9226C193.525 85.9245 191.452 85.2598 189.724 84.022L191.602 80.4892C192.18 81.019 192.837 81.4564 193.548 81.786C194.145 82.0595 194.793 82.2043 195.449 82.2109C196.027 82.2563 196.6 82.0804 197.052 81.719C197.214 81.5806 197.344 81.4093 197.434 81.2165C197.524 81.0236 197.572 80.8138 197.574 80.601C197.579 80.3727 197.533 80.1462 197.44 79.9376C197.332 79.734 197.179 79.5579 196.992 79.4233C196.741 79.2447 196.468 79.0993 196.18 78.991C195.844 78.8569 195.434 78.7078 194.957 78.5438C194.48 78.3799 193.831 78.1637 193.287 77.9476C192.759 77.7426 192.268 77.4531 191.833 77.0905C191.397 76.717 191.047 76.2544 190.805 75.734C190.523 75.0807 190.39 74.3728 190.417 73.6619C190.409 72.8972 190.548 72.1381 190.827 71.426C191.088 70.7696 191.484 70.1754 191.99 69.6819C192.516 69.1808 193.14 68.7949 193.824 68.549C194.604 68.2713 195.427 68.135 196.254 68.1465C197.138 68.1541 198.017 68.2718 198.871 68.4968C199.781 68.7269 200.66 69.0674 201.488 69.5105L199.743 72.9017Z" fill="#010118"/>
<path d="M259.453 72.298H254.234V75.1154H259.155V78.842H254.234V81.7488H259.453V85.4754H249.851V68.5714H259.453V72.298Z" fill="#010118"/>
<path d="M311.901 68.5714V81.7264H317.157V85.453H307.517V68.5714H311.901Z" fill="#010118"/>
<path d="M71.9442 85.6543C72.8279 85.4699 73.6567 85.0832 74.3656 84.5245C75.0745 83.9658 75.6441 83.2504 76.0297 82.4344C76.7145 80.955 76.8851 79.2891 76.5143 77.7016C76.1733 76.1952 75.3228 74.8526 74.1063 73.9004C73.4826 73.4038 72.7646 73.0387 71.9957 72.8273C71.2269 72.6159 70.4231 72.5626 69.6331 72.6706C67.9945 72.8966 66.5121 73.7622 65.5103 75.0781C64.9998 75.7511 64.6271 76.5182 64.4134 77.3354C64.1998 78.1527 64.1494 79.004 64.2652 79.8407C64.484 81.6054 65.363 83.2218 66.7255 84.3649C67.4445 84.9546 68.2862 85.3763 69.1891 85.5994C70.0919 85.8225 71.0332 85.8412 71.9442 85.6543ZM71.989 85.9077C70.0713 86.1948 68.1135 85.8075 66.4497 84.8121C65.5819 84.2984 64.8291 83.6118 64.2379 82.7951C63.6466 81.9784 63.2296 81.0489 63.0128 80.0643C62.5885 78.0042 62.9987 75.8599 64.1534 74.1017C64.7408 73.2105 65.4981 72.4437 66.3821 71.8452C67.266 71.2467 68.2593 70.8282 69.305 70.6135C71.4739 70.1644 73.7324 70.5817 75.5973 71.7763C76.5364 72.3857 77.3338 73.1894 77.9357 74.1331C78.5376 75.0768 78.93 76.1387 79.0864 77.247C79.2308 78.3201 79.1344 79.412 78.8043 80.4433C78.4742 81.4746 77.9186 82.4196 77.1779 83.2096C75.7931 84.6673 73.9519 85.6087 71.9591 85.8779" fill="#010118"/>
</svg>
